Sources/FrostedUI/Resources/Icons.xcassets/leaf24.imageset/leaf-24.svg

<svg width="24" height="24" viewBox="0 0 24 24" fill="none" xmlns="http://www.w3.org/2000/svg" data-fui-icon="true">
  <path
    fill-rule="evenodd"
    clip-rule="evenodd"
    d="M20.8651 2.26219C21.1074 2.21786 21.3561 2.2954 21.5303 2.46962C21.7046 2.64384 21.7821 2.89253 21.7378 3.13489L21.7305 3.17396L21.7098 3.28427C21.6916 3.38062 21.6647 3.52171 21.6294 3.70195C21.5588 4.06239 21.4548 4.57964 21.321 5.20906C21.0537 6.46714 20.6664 8.17698 20.1872 9.98026C19.7087 11.7808 19.1348 13.6888 18.4924 15.338C17.8622 16.9559 17.1257 18.435 16.2803 19.2803C13.2667 22.2939 8.48558 22.4627 5.274 19.7866L3.53033 21.5303C3.23744 21.8232 2.76256 21.8232 2.46967 21.5303C2.17678 21.2374 2.17678 20.7625 2.46967 20.4696L4.21334 18.7259C1.53729 15.5144 1.70607 10.7332 4.71967 7.71961C5.56499 6.87428 7.04409 6.13774 8.66194 5.50755C10.3111 4.86515 12.2191 4.29128 14.0197 3.81279C15.823 3.33358 17.5328 2.94628 18.7909 2.6789C19.4203 2.54514 19.9376 2.4412 20.298 2.3706C20.4782 2.33529 20.6193 2.30832 20.7157 2.2901L20.826 2.26941L20.8547 2.2641L20.8651 2.26219ZM15.2197 18.2196C12.7924 20.6469 8.96063 20.8139 6.34012 18.7205L10.0607 14.9999H14.25C14.6642 14.9999 15 14.6642 15 14.2499C15 13.8357 14.6642 13.4999 14.25 13.4999H11.5607L17.0303 8.03027C17.3232 7.73738 17.3232 7.2625 17.0303 6.96961C16.7374 6.67672 16.2626 6.67672 15.9697 6.96961L12.75 10.1893V8.83807C12.75 8.42386 12.4142 8.08807 12 8.08807C11.5858 8.08807 11.25 8.42386 11.25 8.83807V11.6893L8.16483 14.7745L8.24965 12.0231C8.26241 11.609 7.93713 11.2631 7.52312 11.2503C7.1091 11.2375 6.76312 11.5628 6.75036 11.9768L6.61638 16.3229L5.27946 17.6598C3.18606 15.0393 3.35302 11.2076 5.78033 8.78027C6.38475 8.17584 7.59928 7.53126 9.20638 6.90526C10.7821 6.29146 12.6304 5.73405 14.4049 5.26248C16.1767 4.79163 17.8607 4.41009 19.1027 4.14613C19.4579 4.07065 19.7766 4.00485 20.0506 3.94939C19.9951 4.22334 19.9293 4.54207 19.8538 4.89724C19.5899 6.13923 19.2083 7.82324 18.7375 9.59502C18.2659 11.3695 17.7085 13.2178 17.0947 14.7936C16.4687 16.4007 15.8241 17.6152 15.2197 18.2196Z"
    fill="currentColor"
  />
</svg>

<svg xmlns="http://www.w3.org/2000/svg" width="24" height="24" fill="none" data-fui-icon="true" viewBox="0 0 24 24"><path fill="currentColor" fill-rule="evenodd" d="M20.865 2.262a.75.75 0 0 1 .873.873l-.008.039-.02.11-.08.418a99.298 99.298 0 0 1-1.442 6.278c-.48 1.8-1.053 3.709-1.696 5.358-.63 1.618-1.366 3.097-2.212 3.942a8.175 8.175 0 0 1-11.006.507L3.53 21.53a.75.75 0 1 1-1.06-1.06l1.743-1.744A8.175 8.175 0 0 1 4.72 7.72c.845-.846 2.324-1.582 3.942-2.212 1.65-.643 3.557-1.217 5.358-1.695a99 99 0 0 1 6.696-1.523l.11-.02.029-.006zM15.22 18.22a6.676 6.676 0 0 1-8.88.5L10.06 15h4.19a.75.75 0 1 0 0-1.5h-2.69l5.47-5.47a.75.75 0 0 0-1.06-1.06l-3.22 3.22V8.837a.75.75 0 0 0-1.5 0v2.851l-3.085 3.085.085-2.75a.75.75 0 0 0-1.5-.047l-.134 4.346L5.28 17.66a6.676 6.676 0 0 1 .501-8.88c.605-.604 1.82-1.249 3.426-1.875 1.576-.614 3.424-1.171 5.199-1.643A98 98 0 0 1 20.05 3.95a101 101 0 0 1-1.313 5.646c-.472 1.774-1.03 3.623-1.643 5.199-.626 1.607-1.27 2.821-1.875 3.426" clip-rule="evenodd"/></svg>
